!!!SOCIAL_FUNCTION:	songs of the double dance
!!!PDT:	1922
!!!OTL: No_50_Double_Dance_Song_(b).krn
!!!REG: Southwest
!!!LANG: Non-Tone
!!!LING_GROUP: Uto-Aztecan
**kern	**kern
*staff2	*staff1
=1-	=1-
=	=
*clefF4	*clefF4
*k[f#c#g#]	*k[f#c#g#]
*M2/4	*M2/4
8GG#/L	8c#\L
8GG#/J	16A\L
.	16A\JJ
8GG#/L	4c#\
8GG#/J	.
=2||	=2||
*M3/4	*M3/4
8GG#/L	8A\L
8GG#/J	16F#\L
.	16E\JJ
8GG#/L	4A\
8GG#/J	.
8GG#/L	8F#\L
8GG#/J	8E\J
=3||	=3||
*M2/4	*M2/4
2r	8.C#/L
.	16F#/Jk
.	4E\
=4	=4
2r	8.C#/L
.	16F#/Jk
.	8.E/L
.	16C#/Jk
=5	=5
2r	2C#/
=6	=6
2r	2C#;/
=7	=7
2r	8F#\L
.	8E\J
.	12C#\L
.	12E\
.	12E\J
=8	=8
2r	2C#/
=9||	=9||
*M3/4	*M3/4
2.r	8F#\L
.	8E\J
.	12C#\L
.	12E\
.	12E\J
.	4C#/
==:|!	==:|!
*-	*-
